X:19
T: ROSESTOCK HOLDERBLUET
N: E1016
O: Europa, Mitteleuropa, Deutschland
R: Tanz - Lied; Liebe
M: 3/8
L: 1/16
K: C
 | E3DCE, | A,2G,F,D,2 |
A,2G,F,D,2 | A,2G,E,C,2 |
E3DCG, | A,2G,F,D,2 |
G,2B,2D2 | C4z2 |
FED4 | EDB,4 |
G,2A,2C2 | CB,CDE2 |
FED4 | EDB,4 |
G,2A,2C2 | C4z2

@@@ Tune index: 4703
